static/site/images/special-projects/autoclave/svg/circle-icon-1.svg

<svg width="65" height="65" viewBox="0 0 65 65" fill="none" xmlns="http://www.w3.org/2000/svg">
<g clip-path="url(#clip0)">
<path d="M32.0781 63.4619C49.0611 63.4619 62.8286 49.6944 62.8286 32.7114C62.8286 15.7284 49.0611 1.96094 32.0781 1.96094C15.0951 1.96094 1.32764 15.7284 1.32764 32.7114C1.32764 49.6944 15.0951 63.4619 32.0781 63.4619Z" stroke="#0073FF" stroke-width="2" stroke-miterlimit="10"/>
<path d="M14.7109 17.8198H22.9258V16.9636C22.9258 16.4907 23.3091 16.1074 23.782 16.1074H27.2068V28.7131H23.782C23.3091 28.7131 22.9258 28.3298 22.9258 27.8569V27.0007H14.7109" stroke="#0073FF" stroke-width="2" stroke-miterlimit="10"/>
<path d="M33.1808 21.8926C36.2788 23.8709 38.3371 27.3397 38.3371 31.2804V34.0738" stroke="#0073FF" stroke-width="2" stroke-miterlimit="10"/>
<path d="M47.6025 39.2115C47.6874 38.9849 47.7394 38.7426 47.7521 38.4887C47.8266 37.0065 46.6524 35.7867 45.1869 35.7867C44.7903 35.7867 44.4155 35.8765 44.0809 36.0375C43.8166 35.87 43.7388 35.8208 43.4745 35.6533V31.2809C43.4745 23.8363 37.847 17.7031 30.6196 17.7031" stroke="#0073FF" stroke-width="2" stroke-miterlimit="10"/>
<path d="M30.6316 26.3672C32.1813 27.4545 33.2001 29.2525 33.2001 31.2817V35.6509C32.9469 35.8203 32.8628 35.8766 32.6095 36.046C32.1194 35.8058 31.5414 35.7191 30.9348 35.845C29.9429 36.0508 29.1441 36.8743 28.9633 37.8711C28.8771 38.3464 28.9206 38.8033 29.0648 39.2123" stroke="#0073FF" stroke-width="2" stroke-miterlimit="10"/>
<path d="M19.8654 48.4062H48.4143" stroke="#0073FF" stroke-width="2" stroke-miterlimit="10"/>
<path d="M15.5846 44.125H52.0362" stroke="#0073FF" stroke-width="2" stroke-miterlimit="10"/>
</g>
<defs>
<clipPath id="clip0">
<rect width="64" height="64" fill="white" transform="translate(0.078125 0.710938)"/>
</clipPath>
</defs>
</svg>

<svg width="65" height="65" fill="none" xmlns="http://www.w3.org/2000/svg"><g clip-path="url(#clip0)" stroke="#0073FF" stroke-width="2" stroke-miterlimit="10"><path d="M32.078 63.462c16.983 0 30.75-13.768 30.75-30.75 0-16.984-13.767-30.751-30.75-30.751S1.328 15.728 1.328 32.71s13.767 30.75 30.75 30.75z"/><path d="M14.71 17.82h8.216v-.856c0-.473.383-.857.856-.857h3.425v12.606h-3.425a.856.856 0 01-.856-.856V27H14.71m18.47-5.107c3.099 1.978 5.157 5.447 5.157 9.387v2.794"/><path d="M47.602 39.212c.085-.227.137-.47.15-.723a2.566 2.566 0 00-3.671-2.451l-.607-.385v-4.372c0-7.445-5.627-13.578-12.854-13.578m.012 8.664a6.002 6.002 0 012.568 4.915v4.369l-.59.395a2.564 2.564 0 00-3.646 1.825c-.087.475-.043.932.1 1.341m-9.199 9.194h28.55m-32.83-4.281h36.451"/></g><defs><clipPath id="clip0"><path fill="#fff" transform="translate(.078 .71)" d="M0 0h64v64H0z"/></clipPath></defs></svg>
